X: 90
M:4/4
L:1/8
K:C
aece ^fece|dcBA GBEB|aece ^fece|ecBd cA A2|
aece ^fece|dcBA GBEB|ag^fe ceaf|ecBd cABG||

